X: 6159
T: Captain O'Kane
R: waltz
M: 3/4
K: Gminor
|:G_GD2B2|A2B4|A=GA BcB|AGF2G2|
A2B2d2|_d2=d2BA|GFD2G2|_G2=G4:|
|:GAB2d2|_d2=d4|cBA2c2|=B2c4|
f2d3g|_g2=g3a|_b2d2g2|_g2=g4|
gab2a2|g2f3e|d2d cBA|f2F2G2|
A2B2d2|_d2=d cBA|GFD2G2|_G2=G4:|

